src/assets/icons/media/web-app.svg

<svg width="32px" height="32px" viewBox="0 0 32 32" version="1.1" xmlns="http://www.w3.org/2000/svg" xmlns:xlink="http://www.w3.org/1999/xlink">
    <g id="Symbols" stroke="none" stroke-width="1" fill="none" fill-rule="evenodd">
        <g id="Card/Logo/Web-App" transform="translate(-16.000000, -16.000000)" fill="#1F477D">
            <g id="Card/Logo/Segment-Web-App">
                <g id="Card/Logo/Personas">
                    <g id="browser-gauge" transform="translate(16.000000, 16.000000)">
                        <path d="M8.16266667,22.5333333 L5.55066667,22.5333333 C5.02385032,22.5527752 4.60680836,22.9854917 4.60680836,23.5126667 C4.60680836,24.0398416 5.02385032,24.4725582 5.55066667,24.492 L8.16266667,24.492 C8.52116729,24.5052302 8.85824548,24.321518 9.04142427,24.0130649 C9.22460306,23.7046119 9.22460306,23.3207214 9.04142427,23.0122684 C8.85824548,22.7038154 8.52116729,22.5201031 8.16266667,22.5333333 L8.16266667,22.5333333 Z" id="Path"></path>
                        <path d="M9.704,18.7426667 L7.43733333,17.4373333 C7.13355907,17.2471973 6.75022527,17.2380374 6.43771618,17.4134472 C6.12520708,17.5888569 5.93336599,17.9208595 5.93745334,18.2792082 C5.94154069,18.6375569 6.14090459,18.9650973 6.45733333,19.1333333 L8.724,20.44 C9.19219529,20.7052175 9.78666224,20.5433215 10.0557193,20.0773221 C10.3247763,19.6113226 10.1677721,19.015545 9.704,18.7426667 L9.704,18.7426667 Z" id="Path"></path>
                        <path d="M11.624,13.9693333 C11.3511217,13.5055612 10.755344,13.348557 10.2893446,13.6176141 C9.82334515,13.8866711 9.66144913,14.481138 9.92666667,14.9493333 L11.2333333,17.216 C11.5050574,17.685442 12.1058913,17.8457241 12.5753333,17.574 C13.0447753,17.3022759 13.2050574,16.701442 12.9333333,16.232 L11.624,13.9693333 Z" id="Path"></path>
                        <path d="M16,16.6506667 C16.5412391,16.6506667 16.98,16.2119057 16.98,15.6706667 L16.98,13.0666667 C16.98,12.5254276 16.5412391,12.0866667 16,12.0866667 C15.4587609,12.0866667 15.02,12.5254276 15.02,13.0666667 L15.02,15.6773333 C15.0236643,16.2159671 15.4613538,16.6506667 16,16.6506667 Z" id="Path"></path>
                        <path d="M25.5413333,19.132 C25.9937543,18.8543877 26.1429146,18.2670408 25.8777743,17.8071995 C25.6126341,17.3473582 25.0295845,17.1821967 24.5626667,17.4346667 L22.296,18.7386667 C21.9125055,18.9608124 21.7258294,19.4126849 21.8407221,19.8407228 C21.9556149,20.2687607 22.3434774,20.5664171 22.7866667,20.5666667 C22.9582764,20.5662651 23.1266947,20.5202492 23.2746667,20.4333333 L25.5413333,19.132 Z" id="Path"></path>
                        <path d="M26.452,22.5333333 L23.84,22.5333333 C23.3131837,22.5527752 22.8961417,22.9854917 22.8961417,23.5126667 C22.8961417,24.0398416 23.3131837,24.4725582 23.84,24.492 L26.452,24.492 C26.9788163,24.4725582 27.3958583,24.0398416 27.3958583,23.5126667 C27.3958583,22.9854917 26.9788163,22.5527752 26.452,22.5333333 L26.452,22.5333333 Z" id="Path"></path>
                        <path d="M20.6666667,14.9333333 L14.964,20.6266667 C14.4112998,21.2433954 14.0857818,22.0303774 14.0413333,22.8573333 L14.0413333,23.5093333 C14.0257803,23.8352004 14.1652261,24.1492326 14.4173924,24.3562191 C14.6695586,24.5632056 15.0047474,24.6387692 15.3213333,24.56 L16.0253333,24.42 C16.802708,24.218159 17.449787,23.6805556 17.7906667,22.9533333 L20.9333333,15.1053333 C20.9598781,15.0338068 20.9335932,14.9534223 20.8699181,14.9113968 C20.806243,14.8693712 20.7219976,14.8768057 20.6666667,14.9293333 L20.6666667,14.9333333 Z" id="Path"></path>
                        <path d="M3.91866667,32 L28.0813333,32 C30.2446392,31.9977952 31.9977952,30.2446392 32,28.0813333 L32,3.91866667 C31.9977952,1.75536076 30.2446392,0.00220483193 28.0813333,0 L3.91866667,0 C1.75536076,0.00220483193 0.00220483193,1.75536076 0,3.91866667 L0,28.0813333 C0.00220483193,30.2446392 1.75536076,31.9977952 3.91866667,32 Z M14.6933342,3.91866667 C14.6933342,4.31516092 14.4544191,4.67258855 14.0880545,4.82419547 C13.7216899,4.97580239 13.30007,4.89171308 13.0198971,4.61115852 C12.7397243,4.33060395 12.6562091,3.90886998 12.8083146,3.5427121 C12.9604202,3.17655423 13.3181728,2.93812722 13.7146667,2.93866575 C13.9744564,2.93866575 14.2235864,3.04195866 14.4071603,3.22578274 C14.5907343,3.40960682 14.6936873,3.65887719 14.6933342,3.91866667 L14.6933342,3.91866667 Z M10.7760145,3.91866667 C10.7730583,4.45920169 10.3330033,4.89528539 9.79246378,4.89333347 C9.2519243,4.89136841 8.81504086,4.45210737 8.81601448,3.91156522 C8.81699135,3.37102307 9.25545697,2.93333333 9.796,2.93333333 C10.0568389,2.93333333 10.3069174,3.03731097 10.4908571,3.22225173 C10.6747968,3.4071925 10.7774195,3.65783167 10.7760145,3.91866667 L10.7760145,3.91866667 Z M6.85734787,3.91866667 C6.8543916,4.45920169 6.4143366,4.89528539 5.87379712,4.89333347 C5.33325764,4.89136841 4.8963742,4.45210737 4.89734781,3.91156522 C4.89832469,3.37102307 5.33679031,2.93333333 5.87733333,2.93333333 C6.1381722,2.93333333 6.3882507,3.03731097 6.57219043,3.22225173 C6.75613017,3.4071925 6.85875286,3.65783167 6.85734787,3.91866667 L6.85734787,3.91866667 Z M28.0813333,29.3853333 L3.91866667,29.3853333 C3.19701459,29.3853333 2.612,28.8003187 2.612,28.0786667 L2.612,8.844 C2.612,8.10762033 3.20895367,7.51066667 3.94533333,7.51066667 L28.0546667,7.51066667 C28.7910463,7.51066667 29.388,8.10762033 29.388,8.844 L29.388,28.0813333 C29.388,28.8029854 28.8029854,29.388 28.0813333,29.388 L28.0813333,29.3853333 Z" id="Shape"></path>
                    </g>
                </g>
            </g>
        </g>
    </g>
</svg>

<svg viewBox="0 0 32 32" xmlns="http://www.w3.org/2000/svg">
  <g fill="#1F477D" fill-rule="evenodd">
    <path d="M8.163 22.533H5.55a.98.98 0 000 1.959h2.612a.98.98 0 100-1.959zM9.704 18.743l-2.267-1.306a.98.98 0 10-.98 1.696l2.267 1.307a.98.98 0 00.98-1.697zM11.624 13.97a.98.98 0 00-1.697.98l1.306 2.266a.982.982 0 001.7-.984l-1.309-2.263zM16 16.65a.98.98 0 00.98-.98v-2.603a.98.98 0 10-1.96 0v2.61a.98.98 0 00.98.974zM25.541 19.132a.98.98 0 00-.978-1.697l-2.267 1.304a.98.98 0 00.49 1.828c.172 0 .34-.047.489-.134l2.266-1.301zM26.452 22.533H23.84a.98.98 0 000 1.959h2.612a.98.98 0 000-1.959zM20.667 14.933l-5.703 5.694a3.635 3.635 0 00-.923 2.23v.652a1.032 1.032 0 001.28 1.051l.704-.14a2.699 2.699 0 001.766-1.467l3.142-7.848a.164.164 0 00-.266-.176v.004z"/>
    <path d="M3.919 32H28.08A3.923 3.923 0 0032 28.081V3.92A3.923 3.923 0 0028.081 0H3.92A3.923 3.923 0 000 3.919V28.08A3.923 3.923 0 003.919 32zM14.693 3.919a.98.98 0 11-1.96 0 .98.98 0 011.96 0zm-3.917 0a.98.98 0 11-1.96-.011.98.98 0 011.96.01zm-3.919 0a.98.98 0 11-1.96-.011.98.98 0 011.96.01zm21.224 25.466H3.92a1.307 1.307 0 01-1.307-1.306V8.844c0-.736.597-1.333 1.333-1.333h24.11c.736 0 1.333.597 1.333 1.333v19.237c0 .722-.585 1.307-1.307 1.307v-.003z"/>
  </g>
</svg>
